X:1
T:Title
%%score { ( 1 3 5 ) | ( 2 4 ) }
L:1/8
M:6/8
K:Ab
V:1 treble nm="Grand Piano"
V:3 treble 
V:5 treble 
V:2 bass 
V:4 bass 
V:1
 z3 z2[Q:1/4=123] E | [CEc]2 [CEc] cBA | [CEc]2 [CEc] cBA | c2- [CEc] A2- [CEA] | E6 | %5
 G2- [DEG] B2- [DEGB] | e2- [DEGe-] [DEGe]2 G | A2- [CEA] c2- [CEc] | e2- [EAce-] [EAce]2 E | %9
 z3 .c3 | z3 .c3 | c3 A3[K:bass] |[M:5/8] C2 z z2 |[M:1/8][K:treble] [CEA] |[M:3/4] [B,EG]3 [EB]3 | %15
 [=DF]3 [DB]3 | [G,E]6- | [G,E]6 | [G,B,E]2 [B,E] [G,B,E]2 [B,E] | [B,E]2 E [DEG]2 [EG] | %20
 [CEA]2 [EA] [EA]2 A |[M:5/8] [Ac]2 c c2 |[M:1/8] A |[M:3/4] G3 [Gf]3 | [Ge]6 | A3 [Af]3 | [Ae]6 | %27
 [=Ae]2 [Ae]e dc | d4- dd | d2 dd cB | c4- cE | F2 G A2 B | c2 d e2 [FAd] | [EGc]3 [DGB]3 | %34
 [A,CA]6 | [DF]6- | [DF]2 z2 z2 | [Fd]6 | [FA]6 | [_GB]6- | [GB]2 z2 z2 | [FA]6 | [DF]6 | [E_G]6- | %44
 [EG]2 z2 z2 | F3 [FA]3 | d3 d3 | E3 A3 | [GB]6 | e6 | A6 | [DF]6- | [DF]2 z2 z2 | [Fd]6 | [FA]6 | %55
 [_cd]6- | [cd]2 z2 z2 | [Bd]6 | [_GB]6 | z2 D D2 D | z2 d c2 d | [Ff]6 | [FA]6 | [GB]6- | %64
 [GB]2 z2 z2 | [Fd]6- | [Fd]6 | [DF]6- | [DF]2 z2 z2 | [Fd]6 | [FA]6 | [_GB]6- | [GB]2 z2 z2 | %73
 [FA]6 | [DF]6 | [E_G]6- | [EG]2 z2 z2 | F3 [FA]3 | d3 d3 | E3 A3 | [GB]6 | e6 | A6 | [DF]6- | %84
 [DF]2 z2 z2 | [Fd]6 | [FA]6 | [_cd]6- | [cd]2 z2 z2 | [Bd]6 | [_GB]6 | z2 D D2 D | z2 d c2 d | %93
 [Ff]6 | [FA]6 | [GB]6- | [GB]2 z2 z2 | [Fd]6- | [Fd]6 |[M:1/8] E |[M:3/4] z2 z c z2 | z2 z c z2 | %102
 c3 A3 | E6 | G2- [DEG] B2- [DEGB] | e2- [DEGe-] [DEGe]2 G | A2- [CEA] c2- [CEc] | %107
 e2- [EAce-] [EAce]2 E | z2 z c z2 | z2 z c z2 | c3 A3[K:bass] |[M:5/8] C2 z z2 | %112
[M:1/8][K:treble] [CEA] |[M:3/4] [B,EG]3 [EB]3 | [=DF]3 [DB]3 | [G,E]6- | [G,E]6 | %117
 [G,B,E]2 [B,E] [G,B,E]2 [B,E] | [B,E]2 E [DEG]2 [EG] | [CEA]2 [EA] [EA]2 A |[M:5/8] [Ac]2 c c2 | %121
[M:1/8] A |[M:3/4] G3 [Gf]3 | [Ge]6 | A3 [Af]3 | [Ae]6 | [=Ae]2 [Ae]e dc | d4- dd | d2 dd cB | %129
 c4- cE | F2 G A2 B | c2 d e2 [FAd] | [EGc]3 [DGB]3 |[M:7/4] [A,CA]6 z2 z2 z4 |] %134
V:2
 z6 | [A,,E,]3 z2 [CE] | [A,,E,]3 z2 [CE] | [A,,E,]3 [E,,E,]3 | [A,,E,]3 z2 [CE] | %5
 [B,,E,]3 [E,,E,]3 | [G,,E,]3 [E,,E,]3 | [A,,E,]3 [E,,E,]3 | [A,,E,]3 .[E,,E,]3 | %9
 [A,,E,]3 z2 [CE] | [A,,E,]3 z2 [CE] | [A,,E,]3 z2 C |[M:5/8] z2 C E,,2 |[M:1/8] A,, | %14
[M:3/4] B,,3 [B,,G,]3 | [B,,A,]3 [B,,A,]3 | z2 z E,3- | E,6 | z2 .G,2 z G, | %19
 z2 .B,2 z[K:treble] D | z2 .C2 z E |[M:5/8] z2 A A2 |[M:1/8] z | %23
[M:3/4][K:bass] B,,2 [E,B,] [E,B,D]2 E, | E,,2 E, E,2 E, | A,,2 [E,A,] [E,A,C]2 E, | %26
 C,2 E,2 E,[A,C] | [F,C]2 [F,C][K:treble] [F,=A,F]2 [F,A,F] | [B,F]4- [B,F][A,B,F] | %29
 [G,B,E]2 [G,B,E] [E,G,E]2 [E,G,E] | [A,E]4- [A,E]E, | F,2 G, A,2 B, | C2 D E2 D, | E,3 E,3 | %34
 A,,6 | D,,2 [D,F,] [D,F,]2 [D,F,] | z2 .E2 z F | D,,2 F, F,2 F, | F,3 F,3 | %39
 _G,,2 [_G,B,] [G,B,]2 [G,B,] | z2[K:treble] .B2 z _G | D,,2 F, F,2 F, | D,3 D,3 | %43
 A,,2 [_G,A,] [G,A,]2 [G,A,] | z2[K:treble] _G F2 E | D,,2 F, [F,A,D]2 [F,A,] | %46
 [F,A,DF]3 [F,A,DF]3 | E,,2 [E,A,] [E,A,C]2 [E,A,] | [E,G,D]3 E,3 | A,,2 [_G,A,] [G,A,]2 [G,A,] | %50
 [_G,A,C]3 [G,A,]3 | D,,2 [D,F,] [D,F,]2 [D,F,] | z2 .E2 z F | D,,2 F, F,2 F, | F,3 F,3 | %55
 D,,2 [F,A,] [F,A,]2 [F,A,] | z2[K:treble] .c2 z c | _G,,2 _G, G,2 G, | _G,3 G,3 | %59
 G,,2 [G,B,] [G,B,]2 [G,B,] | z2 E E2 E | A,,2 F, F,2 F, | F,3 F,3 | E,,2 [E,G,] [E,G,]2 [E,G,] | %64
 z2[K:treble] ._G2 z G | D,,2 F, F,2 F, | F,6 | D,,2 [D,F,] [D,F,]2 [D,F,] | z2 .E2 z F | %69
 D,,2 F, F,2 F, | F,3 F,3 | _G,,2 [_G,B,] [G,B,]2 [G,B,] | z2[K:treble] .B2 z _G | D,,2 F, F,2 F, | %74
 D,3 D,3 | A,,2 [_G,A,] [G,A,]2 [G,A,] | z2[K:treble] _G F2 E | D,,2 F, [F,A,D]2 [F,A,] | %78
 [F,A,DF]3 [F,A,DF]3 | E,,2 [E,A,] [E,A,C]2 [E,A,] | [E,G,D]3 E,3 | A,,2 [_G,A,] [G,A,]2 [G,A,] | %82
 [_G,A,C]3 [G,A,]3 | D,,2 [D,F,] [D,F,]2 [D,F,] | z2 .E2 z F | D,,2 F, F,2 F, | F,3 F,3 | %87
 D,,2 [F,A,] [F,A,]2 [F,A,] | z2[K:treble] .c2 z c | _G,,2 _G, G,2 G, | _G,3 G,3 | %91
 G,,2 [G,B,] [G,B,]2 [G,B,] | z2 E E2 E | A,,2 F, F,2 F, | F,3 F,3 | E,,2 [E,G,] [E,G,]2 [E,G,] | %96
 z2[K:treble] ._G2 z G | D,,2 [F,A,] [F,A,]2 [F,A,] | [F,A,]6 |[M:1/8] z |[M:3/4] [A,,E,]4 z [CE] | %101
 [A,,E,]4 z [CE] | [A,,E,]3 [E,,E,]3 | [A,,E,]4 z [CE] | [B,,E,]3 [E,,E,]3 | [G,,E,]3 [E,,E,]3 | %106
 [A,,E,]3 [E,,E,]3 | [A,,E,]3 .[E,,E,]3 | [A,,E,]4 z [CE] | [A,,E,]4 z [CE] | [A,,E,]4 z C | %111
[M:5/8] z2 C E,,2 |[M:1/8] A,, |[M:3/4] B,,3 [B,,G,]3 | [B,,A,]3 [B,,A,]3 | z2 z E,3- | E,6 | %117
 z2 .G,2 z G, | z2 .B,2 z[K:treble] D | z2 .C2 z E |[M:5/8] z2 A A2 |[M:1/8] z | %122
[M:3/4][K:bass] B,,2 [E,B,] [E,B,D]2 E, | E,,2 E, E,2 E, | A,,2 [E,A,] [E,A,C]2 E, | %125
 C,2 E,2 E,[A,C] | [F,C]2 [F,C][K:treble] [F,=A,F]2 [F,A,F] | [B,F]4- [B,F][A,B,F] | %128
 [G,B,E]2 [G,B,E] [E,G,E]2 [E,G,E] | [A,E]4- [A,E]E, | F,2 G, A,2 B, | C2 D E2 D, | E,3 E,3 | %133
[M:7/4] A,,6 z2 z2 z4 |] %134
V:3
 x6 | z3 .[CE]3 | z3 .[CE]3 | .[CE]3 .[CE]3 | C2 C C2 A | .[DE]3 .[DEG]3 | .[DEG]3 z3 | %7
 .[CE]3 .[CE]3 | .[EAc]3 z3 | [CEc]2 [CEc] [CE]-[CEB]A | [CEc]2 [CEc] [CE]-[CEB]A | %11
 [CE]2 [CE] [CE]2[K:bass] E |[M:5/8] [E,E-]3 [E,CE]2 |[M:1/8][K:treble] x |[M:3/4] x6 | x6 | x6 | %17
 x6 | x6 | x6 | x6 |[M:5/8] x5 |[M:1/8] x |[M:3/4] z2 .D2 z [B,D] | z2 [B,D] [B,D]2 [B,DG] | %25
 z2 .C2 z [A,C] | z2 [A,C]2 [A,C][Ae] | x6 | x6 | x6 | x6 | x6 | x6 | x6 | x6 | z2 A, A,2 A, | %36
 z2 _G [=E=G]2 A | z2 [A,D] [A,D]2 [A,D] | [A,D]3 [A,D]3 | z2 D D2 D | z2 d [Ac]2 B | %41
 z2 [A,D] [A,D]2 [A,D] | [F,A,]3 [F,A,]3 | z2 C C2 C | z2 B A2 _G | D2 .[A,D]2 z D | x6 | %47
 c2- [Cc-]2 c-[Cc] | z2 z [G,D]3 | _G2- [CG-] [CG-]2 [CG-] | G3- [CG]3 | z2 A, A,2 A, | %52
 z2 _G [=E=G]2 A | z2 [A,D] [A,D]2 [A,D] | [A,D]3 [A,D]3 | z2 D D2 D | z2 f [=ce]2 d | %57
 z2 [B,D] [B,D]2 [B,D] | [B,D]3 [B,D]3 | [=EB]6- | [EB]2 z2 z2 | z2 [A,D] [A,D]2 [A,D] | %62
 [A,D]3 [A,D]3 | z2 D D2 D | z2 d [_Gc]2 A | z2 [A,D] [A,D]2 [A,D] | [A,D]6 | z2 A, A,2 A, | %68
 z2 _G [=E=G]2 A | z2 [A,D] [A,D]2 [A,D] | [A,D]3 [A,D]3 | z2 D D2 D | z2 d [Ac]2 B | %73
 z2 [A,D] [A,D]2 [A,D] | [F,A,]3 [F,A,]3 | z2 C C2 C | z2 B A2 _G | D2 .[A,D]2 z D | x6 | %79
 c2- [Cc-]2 c-[Cc] | z2 z [G,D]3 | _G2- [CG-] [CG-]2 [CG-] | G3- [CG]3 | z2 A, A,2 A, | %84
 z2 _G [=E=G]2 A | z2 [A,D] [A,D]2 [A,D] | [A,D]3 [A,D]3 | z2 D D2 D | z2 f [=ce]2 d | %89
 z2 [B,D] [B,D]2 [B,D] | [B,D]3 [B,D]3 | [=EB]6- | [EB]2 z2 z2 | z2 [A,D] [A,D]2 [A,D] | %94
 [A,D]3 [A,D]3 | z2 D D2 D | z2 d [_Gc]2 A | z2 D D2 D | D6 |[M:1/8] x | %100
[M:3/4] [CEc]2 [CEc][CE]- [CEB]A | [CEc]2 [CEc][CE]- [CEB]A | [CE]2 [CE] [CE]2 [CE] | C2 C C2 A | %104
 [DE]2 z .[DEG]3 | [DEG]2 z2 z2 | [CE]2 z .[CE]3 | [EAc]2 z2 z2 | [CEc]2 [CEc][CE]- [CEB]A | %109
 [CEc]2 [CEc][CE]- [CEB]A | [CE]2 [CE] [CE]2[K:bass] E |[M:5/8] [E,E-]3 [E,CE]2 | %112
[M:1/8][K:treble] x |[M:3/4] x6 | x6 | x6 | x6 | x6 | x6 | x6 |[M:5/8] x5 |[M:1/8] x | %122
[M:3/4] z2 .D2 z [B,D] | z2 [B,D] [B,D]2 [B,DG] | z2 .C2 z [A,C] | z2 [A,C]2 [A,C][Ae] | x6 | x6 | %128
 x6 | x6 | x6 | x6 | x6 |[M:7/4] x14 |] %134
V:4
 x6 | z3 [E,,E,]3 | z3 [E,,E,]3 | x6 | z3 [E,,E,]3 | x6 | x6 | x6 | x6 | z3 [E,,E,]3 | %10
 z3 [E,,E,]3 | z3 [E,,E,]3 |[M:5/8] A,,3 z2 |[M:1/8] x |[M:3/4] x6 | x6 | E,4 B,,G,, | E,,6 | %18
 D,3 E,3 | G,3 B,3[K:treble] | A,3 C3 |[M:5/8] E-E- E3 |[M:1/8] x |[M:3/4][K:bass] x6 | x6 | x6 | %26
 x6 | x3[K:treble] x3 | x6 | x6 | x6 | x6 | x6 | x6 | x6 | x6 | [D,F,]3 [D,F,A,]3 | x6 | x6 | x6 | %40
 [_G,B,]3[K:treble] [G,B,D]3 | x6 | x6 | x6 | [_G,A,]3[K:treble] [G,A,C]3 | x6 | x6 | x6 | x6 | %49
 x6 | x6 | x6 | [D,F,]3 [D,F,A,]3 | x6 | x6 | x6 | [F,A,]3[K:treble] [F,A,D]3 | x6 | x6 | x6 | %60
 [G,B,]3 [G,B,D]3 | x6 | x6 | x6 | [E,G,]3[K:treble] [E,G,C]3 | x6 | x6 | x6 | [D,F,]3 [D,F,A,]3 | %69
 x6 | x6 | x6 | [_G,B,]3[K:treble] [G,B,D]3 | x6 | x6 | x6 | [_G,A,]3[K:treble] [G,A,C]3 | x6 | %78
 x6 | x6 | x6 | x6 | x6 | x6 | [D,F,]3 [D,F,A,]3 | x6 | x6 | x6 | [F,A,]3[K:treble] [F,A,D]3 | x6 | %90
 x6 | x6 | [G,B,]3 [G,B,D]3 | x6 | x6 | x6 | [E,G,]3[K:treble] [E,G,C]3 | x6 | x6 |[M:1/8] x | %100
[M:3/4] z2 z [E,,E,]3 | z2 z [E,,E,]3 | x6 | z2 z [E,,E,]3 | x6 | x6 | x6 | x6 | z2 z [E,,E,]3 | %109
 z2 z [E,,E,]3 | z2 z [E,,E,]3 |[M:5/8] A,,3 z2 |[M:1/8] x |[M:3/4] x6 | x6 | E,4 B,,G,, | E,,6 | %117
 D,3 E,3 | G,3 B,3[K:treble] | A,3 C3 |[M:5/8] E-E- E3 |[M:1/8] x |[M:3/4][K:bass] x6 | x6 | x6 | %125
 x6 | x3[K:treble] x3 | x6 | x6 | x6 | x6 | x6 | x6 |[M:7/4] x14 |] %134
V:5
 x6 | x6 | x6 | x6 | x6 | x6 | x6 | x6 | x6 | x6 | x6 | x5[K:bass] x |[M:5/8] x5 | %13
[M:1/8][K:treble] x |[M:3/4] x6 | x6 | x6 | x6 | x6 | x6 | x6 |[M:5/8] x5 |[M:1/8] x |[M:3/4] x6 | %24
 x6 | x6 | x6 | x6 | x6 | x6 | x6 | x6 | x6 | x6 | x6 | x6 | A,4 z2 | x6 | x6 | x6 | D4 z2 | x6 | %42
 x6 | x6 | C4 z2 | x6 | x6 | x6 | x6 | x6 | x6 | x6 | A,4 z2 | x6 | x6 | x6 | D4 z2 | x6 | x6 | %59
 x6 | D4 z2 | x6 | x6 | x6 | D4 z2 | x6 | x6 | x6 | A,4 z2 | x6 | x6 | x6 | D4 z2 | x6 | x6 | x6 | %76
 C4 z2 | x6 | x6 | x6 | x6 | x6 | x6 | x6 | A,4 z2 | x6 | x6 | x6 | D4 z2 | x6 | x6 | x6 | D4 z2 | %93
 x6 | x6 | x6 | D4 z2 | x6 | x6 |[M:1/8] x |[M:3/4] x6 | x6 | x6 | x6 | x6 | x6 | x6 | x6 | x6 | %109
 x6 | x5[K:bass] x |[M:5/8] x5 |[M:1/8][K:treble] x |[M:3/4] x6 | x6 | x6 | x6 | x6 | x6 | x6 | %120
[M:5/8] x5 |[M:1/8] x |[M:3/4] x6 | x6 | x6 | x6 | x6 | x6 | x6 | x6 | x6 | x6 | x6 |[M:7/4] x14 |] %134

